X: 5843
T: Calliope House
R: jig
M: 6/8
K: Emajor
eBB gBB|fBB gBB|cff f2e|fge cec|BcB B2G|
B2c e2f|1 gbg gfe|f3f2:|2 gbg fec|e3e||
b3 gbb|fbb gbb|a3 gag|fgf fec|BcB B2G|
B2c e2f|1 gbg gfe|f3f:|2 gbg fec|e3e2||
eBB gBB fBB gBB|cff f2e fge cec|BcB B2G B2c e2f|
[1 gbg gfe f3f2:|2 gbg fec e3e||
b3 gbb fbb gbb|a3 gag fgf fec|BcB B2G B2c e2f|
[1 gbg gfe f3f:|2 gbg fec e3e2||

